actions/symbolic/tools-check-spelling-symbolic.svg

<?xml version="1.0" encoding="UTF-8" standalone="no"?>
<svg
   height="16"
   width="16"
   version="1.1"
   id="svg34234"
   sodipodi:docname="tools-check-spelling-symbolic.svg"
   inkscape:version="1.2.2 (b0a8486541, 2022-12-01)"
   xmlns:inkscape="http://www.inkscape.org/namespaces/inkscape"
   xmlns:sodipodi="http://sodipodi.sourceforge.net/DTD/sodipodi-0.dtd"
   xmlns="http://www.w3.org/2000/svg"
   xmlns:svg="http://www.w3.org/2000/svg">
  <defs
     id="defs34238" />
  <sodipodi:namedview
     id="namedview34236"
     pagecolor="#ffffff"
     bordercolor="#000000"
     borderopacity="0.25"
     inkscape:showpageshadow="2"
     inkscape:pageopacity="0.0"
     inkscape:pagecheckerboard="0"
     inkscape:deskcolor="#d1d1d1"
     showgrid="false"
     inkscape:zoom="32"
     inkscape:cx="8.90625"
     inkscape:cy="17.65625"
     inkscape:window-width="1386"
     inkscape:window-height="1053"
     inkscape:window-x="0"
     inkscape:window-y="0"
     inkscape:window-maximized="0"
     inkscape:current-layer="svg34234" />
  <path
     d="M 4.304,2 1.447,10 H 2.726 L 3.431,8 H 6.413 L 7.12,10 H 8.464 L 5.447,2 Z M 4.914,3.871 6.065,7 H 3.78 Z M 10,5 v 1 h 2.5 C 12.714,6 13,6.307 13,6.5 V 7 H 10.505 C 10.045,7 9.637,7.192 9.38,7.484 9.13359,7.7646 8.99498,8.1266 9,8.5 9.003,8.86 9.14,9.226 9.395,9.516 9.652,9.805 10.051,10 10.505,10 H 14 V 6.5 C 14,5.67157 13.32843,5 12.5,5 Z m 0.5,3 H 13 V 9 H 10.5 C 10.301,9 10.222,8.945 10.145,8.86 10.058,8.75986 10.00351,8.6326 10,8.5 9.998,8.36908 10.0475,8.2417 10.13,8.14 10.203,8.058 10.289,8 10.5,8 Z"
     fill="#666666"
     id="path34228"
     sodipodi:nodetypes="cccccccccccccccsscscccsccscsccscccs"
     style="fill:#555761" />
  <path
     color="#000000"
     d="m 2.500421,10.793 -2.35380175,2.353 a 0.50058943,0.5006316 0 1 0 0.70794036,0.708 l 1.64586139,-1.647 1.9998315,2 1.9998316,-2 1.9998315,2 1.9998324,-2 1.999831,2 2.353802,-2.353 A 0.50058966,0.50063183 0 1 0 14.14544,11.146 l -1.645861,1.647 -1.999831,-2 -1.9998324,2 -1.9998315,-2 -1.9998316,2 z"
     fill="#666666"
     font-family="sans-serif"
     font-weight="400"
     overflow="visible"
     style="line-height:normal;font-variant-ligatures:normal;font-variant-position:normal;font-variant-caps:normal;font-variant-numeric:normal;font-variant-alternates:normal;font-feature-settings:normal;text-indent:0;text-align:start;text-decoration-line:none;text-decoration-style:solid;text-decoration-color:#000000;text-transform:none;text-orientation:mixed;shape-padding:0;isolation:auto;mix-blend-mode:normal;fill:#555761;stroke-width:0.999998;marker:none"
     white-space="normal"
     id="path34230" />
</svg>

<svg
        xmlns='http://www.w3.org/2000/svg'
        xmlns:svg='http://www.w3.org/2000/svg'
        id='svg34234'
        width='16'
        height='16'>
  <path
          id='path34228'
          fill='url(#gpa:foreground) #555761'
          fill-opacity='1'
          fill-rule='nonzero'
          d='M 4.304 2 L 1.447 10 L 2.726 10 L 3.431 8 L 6.413 8 L 7.12 10 L 8.464 10 L 5.447 2 Z M 4.914 3.871 L 6.065 7 L 3.78 7 Z M 10 5 L 10 6 L 12.5 6 C 12.714 6, 13 6.307, 13 6.5 L 13 7 L 10.505 7 C 10.045 7, 9.637 7.192, 9.38 7.484 C 9.13359 7.7646, 8.99498 8.1266, 9 8.5 C 9.003 8.86, 9.14 9.226, 9.395 9.516 C 9.652 9.805, 10.051 10, 10.505 10 L 14 10 L 14 6.5 C 14 5.67157, 13.3284 5, 12.5 5 Z M 10.5 8 L 13 8 L 13 9 L 10.5 9 C 10.301 9, 10.222 8.945, 10.145 8.86 C 10.058 8.75986, 10.0035 8.6326, 10 8.5 C 9.998 8.36908, 10.0475 8.2417, 10.13 8.14 C 10.203 8.058, 10.289 8, 10.5 8 Z'
          class="foreground">
  </path>
  <path
          id='path34230'
          color='rgb(0,0,0)'
          font-family='sans-serif'
          font-weight='400'
          fill='url(#gpa:foreground) #555761'
          fill-opacity='1'
          fill-rule='nonzero'
          stroke-width='0.999998'
          marker-start='none'
          marker-mid='none'
          marker-end='none'
          overflow='visible'
          d='M 2.50042 10.793 L 0.146619 13.146 A 0.500589 0.500632 0 1 0 0.85456 13.854 L 2.50042 12.207 L 4.50025 14.207 L 6.50008 12.207 L 8.49992 14.207 L 10.4997 12.207 L 12.4996 14.207 L 14.8534 11.854 A 0.50059 0.500632 0 1 0 14.1454 11.146 L 12.4996 12.793 L 10.4997 10.793 L 8.49992 12.793 L 6.50008 10.793 L 4.50025 12.793 Z'
          class="foreground"
          style='mix-blend-mode: normal; isolation: auto'>
  </path>
</svg>
